X:3
T:March (Mozart)
R:March
C:Mozart
M:2/4
L:1/8
K:G
GA|B2GA|BAGF|EFGA|FD GA|B2GA|BAGF|EA FD|G2:|
